X:67
T:Reel de Montmagny
M:4/4
L:1/8
K:D
f e2d2 |: BBGB dBBd | BBGB dBGB | AAFA dFAd | Fddf e2d2 |
ccAe acea | a2g2 f2e2 |1 ffdf affa | ffdf e2d2  :|2 d3A BcBA | d3f e2d2 ||
g2g2 ggdg | gdgg f2e2 | f2df fdfg | ffdf a2f2 |
eece ecef | eece a2g2 | ffdf fdfg | ffdf e2d2 |
ggdg gdga | ggdg f2e2 | ffdf fdfg | ffdf a2f2 |
eece ecef | eceg f2e2 | d3A BcBA | d4 |]

